X:2051
T:Bean Setting
R:Jig
O:England; Headington
Z:Paul Hardy's Session Tunebook 2022 (see www.paulhardy.net). Creative Commons cc by-nc-sa licenced.
M:6/8
L:1/8
Q:3/8=100
K:G
d3|"G"G3 G2A|B3 B3|"D7"A2B cBA|"G"G2A B3|G3 G2A|B3 B3|"D7"A2B cBA|"G"G3:|
|:d3|"G"B>AG B>AG|Bd2- d2B|"D7"A>BA A2B|"C"c2d e>dc|"G"B>AG BdB|"D7"ABc def|"G"g3:|

